(G-CODE GENERATED BY FLATCAM v8.994 - www.flatcam.org - Version Date: 2020/11/7)

(Name: copper_top.gbr_iso_combined_cnc)
(Type: G-code from Geometry)
(Units: MM)

(Created on Saturday, 28 January 2023 at 16:14)

(This preprocessor is the default preprocessor used by FlatCAM.)
(It is made to work with MACH3 compatible motion controllers.)

(TOOL DIAMETER: 0.1 mm)
(Feedrate_XY: 30.0 mm/min)
(Feedrate_Z: 25.0 mm/min)
(Feedrate rapids 1500.0 mm/min)

(Z_Cut: -0.1 mm)
(Z_Move: 1.0 mm)
(Z Start: None mm)
(Z End: 15.0 mm)
(X,Y End: None mm)
(Steps per circle: 64)
(Preprocessor Geometry: default)

(X range:    6.5496 ...   35.8583  mm)
(Y range:    2.3417 ...   34.3304  mm)

(Spindle Speed: 1000.0 RPM)
G21
G90
G94

G01 F30.00

M5
G00 Z15.0000
G00 X0.0000 Y0.0000
T1
M6    
(MSG, Change to Tool Dia = 0.1000)
M0
G00 Z15.0000

M03 S1000.0
G01 F30.00
G00 X13.5039 Y27.1639
G01 F25.00
G01 Z-0.1000
G01 F30.00
G01 X13.7739 Y26.8939
G01 X13.7848 Y26.8840
G01 X13.7966 Y26.8752
G01 X13.8071 Y26.8689
G01 X13.8249 Y26.8605
G01 X13.8364 Y26.8564
G01 X13.8507 Y26.8528
G01 X13.8653 Y26.8507
G01 X13.8788 Y26.8500
G01 X31.0378 Y26.8500
G01 X31.3229 Y26.5649
G01 X31.3229 Y26.4733
G01 X31.2267 Y26.3771
G01 X14.9000 Y26.3771
G01 X14.8826 Y26.3762
G01 X14.8655 Y26.3737
G01 X14.8486 Y26.3694
G01 X14.8345 Y26.3645
G01 X14.8165 Y26.3562
G01 X14.7996 Y26.3458
G01 X14.7877 Y26.3369
G01 X14.7766 Y26.3269
G01 X14.7624 Y26.3114
G01 X14.7528 Y26.2984
G01 X14.7451 Y26.2856
G01 X14.7364 Y26.2678
G01 X14.7299 Y26.2490
G01 X14.7263 Y26.2345
G01 X14.7241 Y26.2198
G01 X14.7229 Y26.2000
G01 X14.7229 Y25.4981
G01 X14.7129 Y25.4775
G01 X14.7056 Y25.4564
G01 X14.7014 Y25.4395
G01 X14.6988 Y25.4223
G01 X14.6976 Y25.3975
G01 X14.6985 Y25.3802
G01 X14.7014 Y25.3605
G01 X14.7062 Y25.3412
G01 X14.7129 Y25.3225
G01 X14.7214 Y25.3046
G01 X14.7316 Y25.2875
G01 X14.7435 Y25.2716
G01 X14.7551 Y25.2586
G01 X14.7735 Y25.2420
G01 X14.7875 Y25.2316
G01 X14.8067 Y25.2203
G01 X14.8225 Y25.2129
G01 X14.8412 Y25.2062
G01 X14.8605 Y25.2014
G01 X14.8814 Y25.1984
G01 X14.9000 Y25.1975
G01 X31.3467 Y25.1975
G01 X31.3467 Y24.7533
G01 X15.0683 Y24.7533
G01 X15.0434 Y24.7682
G01 X15.0164 Y24.7810
G01 X14.9883 Y24.7910
G01 X14.9617 Y24.7977
G01 X14.9274 Y24.8028
G01 X14.9000 Y24.8041
G01 X14.8702 Y24.8027
G01 X14.8407 Y24.7983
G01 X14.8117 Y24.7910
G01 X14.7836 Y24.7810
G01 X14.7588 Y24.7693
G01 X14.7290 Y24.7515
G01 X14.7071 Y24.7351
G01 X14.6833 Y24.7133
G01 X14.6649 Y24.6929
G01 X14.6471 Y24.6690
G01 X14.6318 Y24.6434
G01 X14.6190 Y24.6164
G01 X14.6090 Y24.5883
G01 X14.6017 Y24.5593
G01 X14.5973 Y24.5298
G01 X14.5959 Y24.5012
G01 X14.5959 Y23.7000
G01 X14.5973 Y23.6702
G01 X14.6020 Y23.6395
G01 X14.6090 Y23.6117
G01 X14.6181 Y23.5859
G01 X14.6318 Y23.5566
G01 X14.6485 Y23.5290
G01 X14.6649 Y23.5071
G01 X14.6849 Y23.4849
G01 X14.7090 Y23.4634
G01 X14.7310 Y23.4471
G01 X14.7566 Y23.4318
G01 X14.7859 Y23.4181
G01 X14.8117 Y23.4090
G01 X14.8395 Y23.4020
G01 X14.8702 Y23.3973
G01 X14.9000 Y23.3959
G01 X31.2450 Y23.3959
G01 X31.2450 Y22.7550
G01 X15.1871 Y22.7550
G01 X15.1537 Y22.7797
G01 X15.1152 Y22.8027
G01 X15.0747 Y22.8218
G01 X15.0325 Y22.8369
G01 X14.9891 Y22.8478
G01 X14.9448 Y22.8544
G01 X14.9000 Y22.8566
G01 X14.8540 Y22.8543
G01 X14.8109 Y22.8478
G01 X14.7698 Y22.8376
G01 X14.7230 Y22.8209
G01 X14.6848 Y22.8027
G01 X14.6463 Y22.7797
G01 X14.6103 Y22.7530
G01 X14.5789 Y22.7246
G01 X14.5455 Y22.6877
G01 X14.5203 Y22.6537
G01 X14.4973 Y22.6152
G01 X14.4782 Y22.5747
G01 X14.4638 Y22.5349
G01 X14.4522 Y22.4891
G01 X14.4456 Y22.4448
G01 X14.4434 Y22.4000
G01 X14.4434 Y20.9000
G01 X14.4456 Y20.8552
G01 X14.4518 Y20.8133
G01 X14.4638 Y20.7651
G01 X14.4782 Y20.7253
G01 X14.4973 Y20.6848
G01 X14.5203 Y20.6463
G01 X14.5486 Y20.6085
G01 X14.5771 Y20.5771
G01 X15.1789 Y19.9754
G01 X15.2103 Y19.9470
G01 X15.2463 Y19.9203
G01 X15.2848 Y19.8973
G01 X15.3230 Y19.8791
G01 X15.3698 Y19.8624
G01 X15.4109 Y19.8522
G01 X15.4577 Y19.8454
G01 X15.5000 Y19.8434
G01 X31.2671 Y19.8434
G01 X34.7417 Y16.3688
G01 X34.7417 Y3.9312
G01 X34.2688 Y3.4583
G01 X33.4312 Y3.4583
G01 X32.9583 Y3.9312
G01 X32.9583 Y13.8048
G01 X33.0236 Y13.8359
G01 X33.1347 Y13.9026
G01 X33.2378 Y13.9791
G01 X33.3330 Y14.0653
G01 X33.4224 Y14.1641
G01 X33.4981 Y14.2663
G01 X33.5653 Y14.3785
G01 X33.6201 Y14.4946
G01 X33.6638 Y14.6166
G01 X33.6953 Y14.7424
G01 X33.7140 Y14.8681
G01 X33.7206 Y15.0025
G01 X33.7143 Y15.1294
G01 X33.6950 Y15.2588
G01 X33.6630 Y15.3857
G01 X33.6201 Y15.5054
G01 X33.5658 Y15.6204
G01 X33.4981 Y15.7337
G01 X33.4209 Y15.8378
G01 X33.3338 Y15.9338
G01 X32.1321 Y17.1355
G01 X32.0378 Y17.2209
G01 X31.9337 Y17.2981
G01 X31.8225 Y17.3647
G01 X31.7054 Y17.4201
G01 X31.5834 Y17.4638
G01 X31.4576 Y17.4953
G01 X31.3294 Y17.5143
G01 X31.2012 Y17.5206
G01 X29.7000 Y17.5206
G01 X29.5718 Y17.5144
G01 X29.4424 Y17.4953
G01 X29.3166 Y17.4638
G01 X29.1946 Y17.4201
G01 X29.0785 Y17.3653
G01 X28.9643 Y17.2967
G01 X28.8622 Y17.2209
G01 X28.7670 Y17.1347
G01 X27.8645 Y16.2321
G01 X27.7776 Y16.1359
G01 X27.7019 Y16.0337
G01 X27.6365 Y15.9247
G01 X27.5799 Y15.8054
G01 X27.5362 Y15.6834
G01 X27.5047 Y15.5576
G01 X27.4860 Y15.4319
G01 X27.4794 Y15.3000
G01 X27.4794 Y5.3470
G01 X27.3530 Y5.2206
G01 X17.5470 Y5.2206
G01 X17.4706 Y5.2970
G01 X17.4706 Y7.4600
G01 X18.1337 Y7.4601
G01 X18.1421 Y7.4615
G01 X18.1503 Y7.4643
G01 X18.1578 Y7.4684
G01 X18.1645 Y7.4738
G01 X18.1702 Y7.4802
G01 X18.1747 Y7.4875
G01 X18.1782 Y7.4967
G01 X18.1798 Y7.5051
G01 X18.1800 Y11.4700
G01 X18.1796 Y11.4761
G01 X18.1785 Y11.4821
G01 X18.1766 Y11.4880
G01 X18.1741 Y11.4936
G01 X18.1702 Y11.4998
G01 X18.1662 Y11.5045
G01 X18.1617 Y11.5087
G01 X18.1557 Y11.5129
G01 X18.1503 Y11.5157
G01 X18.1433 Y11.5182
G01 X18.1373 Y11.5195
G01 X18.1300 Y11.5200
G01 X14.1700 Y11.5200
G01 X14.1639 Y11.5196
G01 X14.1543 Y11.5175
G01 X14.1464 Y11.5141
G01 X14.1383 Y11.5087
G01 X14.1321 Y11.5027
G01 X14.1271 Y11.4957
G01 X14.1234 Y11.4880
G01 X14.1207 Y11.4785
G01 X14.1200 Y11.4700
G01 X14.1200 Y7.5100
G01 X14.1204 Y7.5039
G01 X14.1222 Y7.4955
G01 X14.1253 Y7.4875
G01 X14.1298 Y7.4802
G01 X14.1355 Y7.4738
G01 X14.1422 Y7.4684
G01 X14.1497 Y7.4643
G01 X14.1579 Y7.4615
G01 X14.1663 Y7.4601
G01 X14.8294 Y7.4600
G01 X14.8294 Y4.7500
G01 X14.8356 Y4.6218
G01 X14.8553 Y4.4900
G01 X14.8862 Y4.3666
G01 X14.9299 Y4.2446
G01 X14.9853 Y4.1275
G01 X15.0506 Y4.0184
G01 X15.1299 Y3.9113
G01 X15.2162 Y3.8162
G01 X16.0662 Y2.9662
G01 X16.1632 Y2.8784
G01 X16.2663 Y2.8019
G01 X16.3753 Y2.7365
G01 X16.4946 Y2.6799
G01 X16.6166 Y2.6362
G01 X16.7400 Y2.6053
G01 X16.8718 Y2.5856
G01 X17.0000 Y2.5794
G01 X27.9012 Y2.5794
G01 X28.0294 Y2.5857
G01 X28.1552 Y2.6043
G01 X28.2834 Y2.6362
G01 X28.4054 Y2.6799
G01 X28.5204 Y2.7342
G01 X28.6347 Y2.8026
G01 X28.7378 Y2.8791
G01 X28.8338 Y2.9662
G01 X29.7338 Y3.8662
G01 X29.8209 Y3.9622
G01 X29.8994 Y4.0684
G01 X29.9647 Y4.1775
G01 X30.0191 Y4.2924
G01 X30.0638 Y4.4166
G01 X30.0955 Y4.5436
G01 X30.1143 Y4.6706
G01 X30.1206 Y4.8000
G01 X30.1206 Y14.7530
G01 X30.2470 Y14.8794
G01 X30.6530 Y14.8794
G01 X31.4662 Y14.0662
G01 X31.5603 Y13.9807
G01 X31.6673 Y13.9013
G01 X31.7764 Y13.8359
G01 X31.8417 Y13.8048
G01 X31.8417 Y3.7000
G01 X31.8444 Y3.6453
G01 X31.8521 Y3.5935
G01 X31.8662 Y3.5368
G01 X31.8852 Y3.4841
G01 X31.9077 Y3.4368
G01 X31.9345 Y3.3919
G01 X31.9685 Y3.3458
G01 X32.0053 Y3.3053
G01 X32.8070 Y2.5036
G01 X32.8458 Y2.4685
G01 X32.8919 Y2.4345
G01 X32.9390 Y2.4066
G01 X32.9864 Y2.3842
G01 X33.0356 Y2.3666
G01 X33.0935 Y2.3521
G01 X33.1453 Y2.3444
G01 X33.1988 Y2.3418
G01 X34.5000 Y2.3417
G01 X34.5523 Y2.3443
G01 X34.6113 Y2.3530
G01 X34.6621 Y2.3658
G01 X34.7136 Y2.3842
G01 X34.7632 Y2.4077
G01 X34.8081 Y2.4345
G01 X34.8551 Y2.4693
G01 X34.8947 Y2.5053
G01 X35.6947 Y3.3053
G01 X35.7307 Y3.3449
G01 X35.7655 Y3.3919
G01 X35.7923 Y3.4368
G01 X35.8158 Y3.4864
G01 X35.8342 Y3.5379
G01 X35.8470 Y3.5887
G01 X35.8557 Y3.6465
G01 X35.8583 Y3.7000
G01 X35.8583 Y16.6000
G01 X35.8556 Y16.6547
G01 X35.8479 Y16.7065
G01 X35.8334 Y16.7644
G01 X35.8158 Y16.8136
G01 X35.7923 Y16.8632
G01 X35.7628 Y16.9122
G01 X35.7315 Y16.9542
G01 X35.6956 Y16.9939
G01 X31.9939 Y20.6956
G01 X31.9542 Y20.7315
G01 X31.9101 Y20.7642
G01 X31.8632 Y20.7923
G01 X31.8136 Y20.8158
G01 X31.7621 Y20.8342
G01 X31.7089 Y20.8475
G01 X31.6547 Y20.8556
G01 X31.6000 Y20.8583
G01 X31.5453 Y20.8556
G01 X31.4935 Y20.8479
G01 X31.4368 Y20.8338
G01 X31.3864 Y20.8158
G01 X31.3379 Y20.7929
G01 X31.2909 Y20.7648
G01 X31.2795 Y20.7566
G01 X15.6891 Y20.7566
G01 X15.3566 Y21.0891
G01 X15.3566 Y22.0450
G01 X31.6000 Y22.0450
G01 X31.6348 Y22.0468
G01 X31.6668 Y22.0514
G01 X31.7054 Y22.0611
G01 X31.7358 Y22.0721
G01 X31.7673 Y22.0870
G01 X31.7992 Y22.1063
G01 X31.8252 Y22.1256
G01 X31.8510 Y22.1490
G01 X31.8744 Y22.1748
G01 X31.8937 Y22.2008
G01 X31.9130 Y22.2327
G01 X31.9279 Y22.2642
G01 X31.9389 Y22.2946
G01 X31.9484 Y22.3320
G01 X31.9532 Y22.3652
G01 X31.9550 Y22.4000
G01 X31.9550 Y23.7000
G01 X31.9534 Y23.7323
G01 X31.9481 Y23.7692
G01 X31.9397 Y23.8030
G01 X31.9279 Y23.8358
G01 X31.9141 Y23.8651
G01 X31.8937 Y23.8992
G01 X31.8744 Y23.9252
G01 X31.8492 Y23.9527
G01 X31.8252 Y23.9744
G01 X31.7972 Y23.9951
G01 X31.7673 Y24.0130
G01 X31.7358 Y24.0279
G01 X31.7030 Y24.0397
G01 X31.6692 Y24.0481
G01 X31.6348 Y24.0532
G01 X31.6012 Y24.0549
G01 X31.5628 Y24.0529
G01 X31.5308 Y24.0481
G01 X31.4981 Y24.0400
G01 X31.4630 Y24.0274
G01 X31.4338 Y24.0136
G01 X31.4177 Y24.0041
G01 X15.2041 Y24.0041
G01 X15.2041 Y24.2467
G01 X31.6000 Y24.2467
G01 X31.6236 Y24.2478
G01 X31.6518 Y24.2521
G01 X31.6735 Y24.2576
G01 X31.6969 Y24.2660
G01 X31.7194 Y24.2766
G01 X31.7387 Y24.2881
G01 X31.7626 Y24.3058
G01 X31.7791 Y24.3209
G01 X31.7958 Y24.3393
G01 X31.8106 Y24.3593
G01 X31.8222 Y24.3785
G01 X31.8349 Y24.4054
G01 X31.8424 Y24.4265
G01 X31.8484 Y24.4506
G01 X31.8521 Y24.4752
G01 X31.8533 Y24.5000
G01 X31.8533 Y25.4000
G01 X31.8522 Y25.4236
G01 X31.8484 Y25.4494
G01 X31.8424 Y25.4735
G01 X31.8340 Y25.4969
G01 X31.8245 Y25.5172
G01 X31.8092 Y25.5427
G01 X31.7958 Y25.5607
G01 X31.7773 Y25.5808
G01 X31.7607 Y25.5958
G01 X31.7407 Y25.6106
G01 X31.7194 Y25.6234
G01 X31.6969 Y25.6340
G01 X31.6735 Y25.6424
G01 X31.6494 Y25.6484
G01 X31.6248 Y25.6521
G01 X31.6000 Y25.6533
G01 X31.5752 Y25.6521
G01 X31.5530 Y25.6489
G01 X31.5253 Y25.6420
G01 X31.5031 Y25.6340
G01 X31.4817 Y25.6240
G01 X31.4603 Y25.6113
G01 X31.4482 Y25.6025
G01 X15.0771 Y25.6025
G01 X15.0771 Y26.0229
G01 X31.3025 Y26.0230
G01 X31.3174 Y26.0238
G01 X31.3345 Y26.0263
G01 X31.3514 Y26.0306
G01 X31.3655 Y26.0355
G01 X31.3856 Y26.0451
G01 X31.3984 Y26.0528
G01 X31.4123 Y26.0631
G01 X31.4252 Y26.0748
G01 X31.6261 Y26.2757
G01 X31.6369 Y26.2877
G01 X31.6458 Y26.2996
G01 X31.6573 Y26.3187
G01 X31.6636 Y26.3322
G01 X31.6694 Y26.3486
G01 X31.6737 Y26.3655
G01 X31.6763 Y26.3839
G01 X31.6771 Y26.4000
G01 X31.6771 Y26.6000
G01 X31.6764 Y26.6149
G01 X31.6731 Y26.6369
G01 X31.6694 Y26.6514
G01 X31.6636 Y26.6678
G01 X31.6562 Y26.6835
G01 X31.6485 Y26.6963
G01 X31.6361 Y26.7133
G01 X31.6252 Y26.7252
G01 X31.6142 Y26.7353
G01 X31.5963 Y26.7485
G01 X31.5835 Y26.7562
G01 X31.5678 Y26.7636
G01 X31.5514 Y26.7694
G01 X31.5398 Y26.7724
G01 X31.2061 Y27.1061
G01 X31.1952 Y27.1160
G01 X31.1834 Y27.1248
G01 X31.1729 Y27.1311
G01 X31.1551 Y27.1395
G01 X31.1436 Y27.1436
G01 X31.1293 Y27.1472
G01 X31.1147 Y27.1493
G01 X31.1012 Y27.1500
G01 X13.9422 Y27.1500
G01 X13.7600 Y27.3322
G01 X13.7600 Y28.4778
G01 X14.9660 Y29.6838
G01 X32.6600 Y29.6838
G01 X32.6748 Y29.6847
G01 X32.6846 Y29.6862
G01 X32.6943 Y29.6885
G01 X32.7083 Y29.6934
G01 X32.7216 Y29.6999
G01 X32.7301 Y29.7050
G01 X32.7381 Y29.7109
G01 X32.7493 Y29.7207
G01 X34.0193 Y30.9907
G01 X34.0276 Y30.9999
G01 X34.0335 Y31.0079
G01 X34.0424 Y31.0227
G01 X34.0475 Y31.0340
G01 X34.0508 Y31.0434
G01 X34.0533 Y31.0530
G01 X34.0556 Y31.0676
G01 X34.0562 Y31.0800
G01 X34.0562 Y32.3500
G01 X34.0556 Y32.3624
G01 X34.0538 Y32.3746
G01 X34.0508 Y32.3866
G01 X34.0475 Y32.3960
G01 X34.0401 Y32.4116
G01 X34.0343 Y32.4211
G01 X34.0268 Y32.4310
G01 X34.0193 Y32.4393
G01 X32.7493 Y33.7093
G01 X32.7401 Y33.7176
G01 X32.7301 Y33.7250
G01 X32.7195 Y33.7313
G01 X32.7094 Y33.7361
G01 X32.6966 Y33.7408
G01 X32.6846 Y33.7438
G01 X32.6724 Y33.7456
G01 X32.6600 Y33.7462
G01 X30.8304 Y33.7462
G01 X30.8303 Y33.8960
G01 X30.8294 Y33.9033
G01 X30.8279 Y33.9092
G01 X30.8251 Y33.9160
G01 X30.8213 Y33.9223
G01 X30.8158 Y33.9289
G01 X30.4289 Y34.3158
G01 X30.4243 Y34.3198
G01 X30.4193 Y34.3233
G01 X30.4127 Y34.3266
G01 X30.4069 Y34.3286
G01 X30.3997 Y34.3300
G01 X30.3935 Y34.3304
G01 X29.8465 Y34.3304
G01 X29.8403 Y34.3300
G01 X29.8343 Y34.3289
G01 X29.8273 Y34.3266
G01 X29.8218 Y34.3239
G01 X29.8167 Y34.3206
G01 X29.8120 Y34.3166
G01 X29.4234 Y33.9280
G01 X29.4174 Y33.9203
G01 X29.4130 Y33.9115
G01 X29.4106 Y33.9033
G01 X29.4096 Y33.8935
G01 X29.4096 Y33.3465
G01 X29.4106 Y33.3367
G01 X29.4134 Y33.3273
G01 X29.4180 Y33.3187
G01 X29.4242 Y33.3111
G01 X29.8111 Y32.9242
G01 X29.8167 Y32.9194
G01 X29.8240 Y32.9149
G01 X29.8296 Y32.9125
G01 X29.8355 Y32.9108
G01 X29.8403 Y32.9100
G01 X29.8465 Y32.9096
G01 X30.3935 Y32.9096
G01 X30.4009 Y32.9101
G01 X30.4069 Y32.9114
G01 X30.4127 Y32.9134
G01 X30.4182 Y32.9161
G01 X30.4233 Y32.9194
G01 X30.4289 Y32.9242
G01 X30.8158 Y33.3111
G01 X30.8213 Y33.3177
G01 X30.8245 Y33.3229
G01 X30.8275 Y33.3296
G01 X30.8294 Y33.3367
G01 X30.8303 Y33.3440
G01 X30.8304 Y33.4938
G01 X32.6077 Y33.4938
G01 X33.8038 Y32.2977
G01 X33.8038 Y31.1323
G01 X32.6077 Y29.9362
G01 X14.9610 Y29.9362
G01 X14.9507 Y29.9423
G01 X14.9374 Y29.9486
G01 X14.9236 Y29.9536
G01 X14.9105 Y29.9569
G01 X14.8947 Y29.9593
G01 X14.8825 Y29.9600
G01 X14.8629 Y29.9590
G01 X14.8507 Y29.9572
G01 X14.8364 Y29.9536
G01 X14.8226 Y29.9486
G01 X14.8115 Y29.9434
G01 X14.7956 Y29.9341
G01 X14.7848 Y29.9260
G01 X14.7748 Y29.9170
G01 X13.5039 Y28.6461
G01 X13.4940 Y28.6352
G01 X13.4867 Y28.6254
G01 X13.4766 Y28.6085
G01 X13.4714 Y28.5974
G01 X13.4672 Y28.5859
G01 X13.4634 Y28.5717
G01 X13.4608 Y28.5559
G01 X13.4600 Y28.5412
G01 X13.4600 Y27.2688
G01 X13.4607 Y27.2553
G01 X13.4628 Y27.2407
G01 X13.4664 Y27.2264
G01 X13.4714 Y27.2126
G01 X13.4777 Y27.1993
G01 X13.4852 Y27.1866
G01 X13.4940 Y27.1748
G01 X13.5039 Y27.1639
G00 Z1.0000
G00 X9.1042 Y33.3111
G01 F25.00
G01 Z-0.1000
G01 F30.00
G01 X9.4920 Y32.9234
G01 X9.4987 Y32.9180
G01 X9.5073 Y32.9134
G01 X9.5155 Y32.9108
G01 X9.5252 Y32.9096
G01 X10.0735 Y32.9096
G01 X10.0833 Y32.9106
G01 X10.0892 Y32.9121
G01 X10.0960 Y32.9149
G01 X10.1013 Y32.9180
G01 X10.1071 Y32.9226
G01 X10.2464 Y33.0617
G01 X19.5136 Y33.0617
G01 X19.6529 Y32.9226
G01 X19.6587 Y32.9180
G01 X19.6640 Y32.9149
G01 X19.6696 Y32.9125
G01 X19.6767 Y32.9106
G01 X19.6865 Y32.9096
G01 X20.2360 Y32.9097
G01 X20.2445 Y32.9108
G01 X20.2527 Y32.9134
G01 X20.2603 Y32.9174
G01 X20.2680 Y32.9234
G01 X20.6558 Y33.3111
G01 X20.6613 Y33.3177
G01 X20.6661 Y33.3262
G01 X20.6692 Y33.3355
G01 X20.6702 Y33.3416
G01 X20.6704 Y33.3465
G01 X20.6703 Y33.8960
G01 X20.6692 Y33.9045
G01 X20.6661 Y33.9138
G01 X20.6620 Y33.9213
G01 X20.6566 Y33.9280
G01 X20.2689 Y34.3158
G01 X20.2613 Y34.3220
G01 X20.2538 Y34.3261
G01 X20.2445 Y34.3292
G01 X20.2360 Y34.3303
G01 X19.6865 Y34.3304
G01 X19.6767 Y34.3294
G01 X19.6708 Y34.3279
G01 X19.6640 Y34.3251
G01 X19.6577 Y34.3213
G01 X19.6529 Y34.3174
G01 X19.5136 Y34.1783
G01 X10.2464 Y34.1783
G01 X10.1071 Y34.3174
G01 X10.1013 Y34.3220
G01 X10.0960 Y34.3251
G01 X10.0904 Y34.3275
G01 X10.0833 Y34.3294
G01 X10.0735 Y34.3304
G01 X9.5240 Y34.3303
G01 X9.5155 Y34.3292
G01 X9.5073 Y34.3266
G01 X9.4997 Y34.3226
G01 X9.4920 Y34.3166
G01 X9.1042 Y33.9289
G01 X9.0980 Y33.9213
G01 X9.0934 Y33.9127
G01 X9.0906 Y33.9033
G01 X9.0896 Y33.8935
G01 X9.0896 Y33.3452
G01 X9.0908 Y33.3355
G01 X9.0939 Y33.3262
G01 X9.0987 Y33.3177
G01 X9.1042 Y33.3111
G00 Z1.0000
G00 X6.5642 Y33.3111
G01 F25.00
G01 Z-0.1000
G01 F30.00
G01 X6.5747 Y33.3007
G01 X6.5747 Y11.7750
G01 X6.5779 Y11.7090
G01 X6.5884 Y11.6389
G01 X6.6042 Y11.5761
G01 X6.6268 Y11.5127
G01 X6.6556 Y11.4519
G01 X6.6889 Y11.3963
G01 X6.7310 Y11.3393
G01 X6.7754 Y11.2904
G01 X8.1672 Y9.8986
G01 X8.1351 Y9.7704
G01 X8.1147 Y9.6333
G01 X8.1076 Y9.4925
G01 X8.1144 Y9.3491
G01 X8.1351 Y9.2096
G01 X8.1694 Y9.0727
G01 X8.2179 Y8.9376
G01 X8.2772 Y8.8124
G01 X8.3484 Y8.6934
G01 X8.4338 Y8.5781
G01 X8.5303 Y8.4718
G01 X8.6331 Y8.3788
G01 X8.7464 Y8.2948
G01 X8.8674 Y8.2222
G01 X8.9926 Y8.1629
G01 X9.1277 Y8.1144
G01 X9.2670 Y8.0797
G01 X9.4041 Y8.0594
G01 X9.5450 Y8.0525
G01 X9.6883 Y8.0597
G01 X9.8254 Y8.0801
G01 X9.9599 Y8.1137
G01 X10.0974 Y8.1629
G01 X10.2226 Y8.2222
G01 X10.3416 Y8.2934
G01 X10.4569 Y8.3788
G01 X10.5632 Y8.4753
G01 X10.6562 Y8.5781
G01 X10.7388 Y8.6894
G01 X10.8128 Y8.8124
G01 X10.8731 Y8.9399
G01 X10.9198 Y9.0704
G01 X10.9553 Y9.2120
G01 X10.9756 Y9.3491
G01 X10.9825 Y9.4900
G01 X10.9756 Y9.6309
G01 X10.9549 Y9.7704
G01 X10.9206 Y9.9073
G01 X10.8731 Y10.0401
G01 X10.8128 Y10.1676
G01 X10.7402 Y10.2886
G01 X10.6562 Y10.4019
G01 X10.5615 Y10.5065
G01 X10.4569 Y10.6012
G01 X10.3436 Y10.6852
G01 X10.2226 Y10.7578
G01 X10.0951 Y10.8181
G01 X9.9623 Y10.8656
G01 X9.8491 Y10.8940
G01 X9.8491 Y17.8190
G01 X9.9260 Y17.8959
G01 X9.9740 Y17.8959
G01 X10.0959 Y17.7740
G01 X10.0959 Y14.0988
G01 X10.0973 Y14.0702
G01 X10.1017 Y14.0407
G01 X10.1090 Y14.0117
G01 X10.1181 Y13.9859
G01 X10.1330 Y13.9545
G01 X10.1471 Y13.9310
G01 X10.1665 Y13.9052
G01 X10.1849 Y13.8849
G01 X10.4867 Y13.5833
G01 X10.5071 Y13.5649
G01 X10.5310 Y13.5471
G01 X10.5566 Y13.5318
G01 X10.5836 Y13.5190
G01 X10.6117 Y13.5090
G01 X10.6407 Y13.5017
G01 X10.6702 Y13.4973
G01 X10.6975 Y13.4959
G01 X11.1000 Y13.4959
G01 X11.1274 Y13.4972
G01 X11.1617 Y13.5023
G01 X11.1883 Y13.5090
G01 X11.2164 Y13.5190
G01 X11.2434 Y13.5318
G01 X11.2669 Y13.5458
G01 X11.2939 Y13.5657
G01 X11.3151 Y13.5849
G01 X11.6167 Y13.8867
G01 X11.6351 Y13.9071
G01 X11.6529 Y13.9310
G01 X11.6682 Y13.9566
G01 X11.6800 Y13.9814
G01 X11.6910 Y14.0117
G01 X11.6983 Y14.0407
G01 X11.7027 Y14.0702
G01 X11.7041 Y14.1000
G01 X11.7041 Y17.6740
G01 X11.8260 Y17.7959
G01 X11.9740 Y17.7959
G01 X12.0959 Y17.6740
G01 X12.0959 Y14.2000
G01 X12.0973 Y14.1702
G01 X12.1017 Y14.1407
G01 X12.1090 Y14.1117
G01 X12.1186 Y14.0848
G01 X12.1318 Y14.0566
G01 X12.1471 Y14.0310
G01 X12.1649 Y14.0071
G01 X12.1833 Y13.9867
G01 X12.4858 Y13.6841
G01 X12.5071 Y13.6649
G01 X12.5331 Y13.6458
G01 X12.5566 Y13.6318
G01 X12.5814 Y13.6200
G01 X12.6105 Y13.6093
G01 X12.6431 Y13.6013
G01 X12.6702 Y13.5973
G01 X12.7000 Y13.5959
G01 X13.6000 Y13.5959
G01 X13.6310 Y13.5975
G01 X13.6593 Y13.6017
G01 X13.6883 Y13.6090
G01 X13.7164 Y13.6190
G01 X13.7412 Y13.6307
G01 X13.7710 Y13.6485
G01 X13.7929 Y13.6649
G01 X13.8142 Y13.6841
G01 X14.7159 Y14.5858
G01 X14.7351 Y14.6071
G01 X14.7542 Y14.6331
G01 X14.7682 Y14.6566
G01 X14.7800 Y14.6814
G01 X14.7903 Y14.7094
G01 X14.7987 Y14.7431
G01 X14.8027 Y14.7702
G01 X14.8041 Y14.8000
G01 X14.8041 Y17.9740
G01 X15.3260 Y18.4959
G01 X16.1740 Y18.4959
G01 X16.5959 Y18.0740
G01 X16.5959 Y14.5988
G01 X16.5973 Y14.5702
G01 X16.6013 Y14.5431
G01 X16.6097 Y14.5094
G01 X16.6190 Y14.4836
G01 X16.6318 Y14.4566
G01 X16.6471 Y14.4310
G01 X16.6634 Y14.4090
G01 X16.6849 Y14.3849
G01 X17.3858 Y13.6841
G01 X17.4071 Y13.6649
G01 X17.4331 Y13.6458
G01 X17.4566 Y13.6318
G01 X17.4814 Y13.6200
G01 X17.5094 Y13.6097
G01 X17.5431 Y13.6013
G01 X17.5702 Y13.5973
G01 X17.6000 Y13.5959
G01 X19.0012 Y13.5959
G01 X19.0298 Y13.5973
G01 X19.0593 Y13.6017
G01 X19.0883 Y13.6090
G01 X19.1164 Y13.6190
G01 X19.1434 Y13.6318
G01 X19.1690 Y13.6471
G01 X19.1929 Y13.6649
G01 X19.2142 Y13.6841
G01 X19.9167 Y14.3867
G01 X19.9351 Y14.4071
G01 X19.9515 Y14.4290
G01 X19.9682 Y14.4566
G01 X19.9819 Y14.4859
G01 X19.9910 Y14.5117
G01 X19.9980 Y14.5395
G01 X20.0027 Y14.5702
G01 X20.0041 Y14.6000
G01 X20.0041 Y18.2740
G01 X20.3260 Y18.5959
G01 X21.3959 Y18.5959
G01 X21.3959 Y14.3988
G01 X21.3973 Y14.3702
G01 X21.4017 Y14.3407
G01 X21.4090 Y14.3117
G01 X21.4190 Y14.2836
G01 X21.4318 Y14.2566
G01 X21.4471 Y14.2310
G01 X21.4649 Y14.2071
G01 X21.4833 Y14.1867
G01 X21.5071 Y14.1649
G01 X21.5310 Y14.1471
G01 X21.5566 Y14.1318
G01 X21.5836 Y14.1190
G01 X21.6117 Y14.1090
G01 X21.6407 Y14.1017
G01 X21.6702 Y14.0973
G01 X21.6988 Y14.0959
G01 X25.4959 Y14.0959
G01 X25.4959 Y9.7941
G01 X24.1590 Y9.7941
G01 X24.1306 Y9.9073
G01 X24.0831 Y10.0401
G01 X24.0228 Y10.1676
G01 X23.9502 Y10.2886
G01 X23.8662 Y10.4019
G01 X23.7715 Y10.5065
G01 X23.6669 Y10.6012
G01 X23.5536 Y10.6852
G01 X23.4326 Y10.7578
G01 X23.3051 Y10.8181
G01 X23.1723 Y10.8656
G01 X23.0354 Y10.8999
G01 X22.8959 Y10.9206
G01 X22.7550 Y10.9275
G01 X22.6141 Y10.9206
G01 X22.4722 Y10.8993
G01 X22.3377 Y10.8656
G01 X22.2072 Y10.8190
G01 X22.0796 Y10.7589
G01 X21.9564 Y10.6852
G01 X21.8431 Y10.6012
G01 X21.7385 Y10.5065
G01 X21.6423 Y10.4000
G01 X21.5584 Y10.2866
G01 X21.4872 Y10.1676
G01 X21.4279 Y10.0424
G01 X21.3794 Y9.9073
G01 X21.3451 Y9.7704
G01 X21.3244 Y9.6309
G01 X21.3176 Y9.4875
G01 X21.3244 Y9.3491
G01 X21.3447 Y9.2120
G01 X21.3787 Y9.0751
G01 X21.4269 Y8.9399
G01 X21.4867 Y8.8135
G01 X21.5612 Y8.6894
G01 X21.6438 Y8.5781
G01 X21.7385 Y8.4735
G01 X21.8431 Y8.3788
G01 X21.9544 Y8.2962
G01 X22.0774 Y8.2222
G01 X22.2072 Y8.1610
G01 X22.3377 Y8.1144
G01 X22.4746 Y8.0801
G01 X22.6165 Y8.0592
G01 X22.7550 Y8.0525
G01 X22.8959 Y8.0594
G01 X23.0378 Y8.0807
G01 X23.1723 Y8.1144
G01 X23.3051 Y8.1619
G01 X23.4326 Y8.2222
G01 X23.5516 Y8.2934
G01 X23.6688 Y8.3804
G01 X23.7715 Y8.4735
G01 X23.8646 Y8.5762
G01 X23.9516 Y8.6934
G01 X24.0228 Y8.8124
G01 X24.0831 Y8.9399
G01 X24.1306 Y9.0727
G01 X24.1590 Y9.1859
G01 X25.7925 Y9.1859
G01 X25.8198 Y9.1873
G01 X25.8493 Y9.1917
G01 X25.8783 Y9.1990
G01 X25.9041 Y9.2081
G01 X25.9355 Y9.2230
G01 X25.9590 Y9.2371
G01 X25.9829 Y9.2549
G01 X26.0042 Y9.2741
G01 X26.0098 Y9.2802
G01 X26.0151 Y9.2849
G01 X26.0351 Y9.3071
G01 X26.0529 Y9.3310
G01 X26.0688 Y9.3577
G01 X26.0819 Y9.3859
G01 X26.0910 Y9.4117
G01 X26.0977 Y9.4383
G01 X26.1027 Y9.4702
G01 X26.1041 Y9.4988
G01 X26.1041 Y14.4000
G01 X26.1027 Y14.4298
G01 X26.0983 Y14.4593
G01 X26.0910 Y14.4883
G01 X26.0810 Y14.5164
G01 X26.0670 Y14.5455
G01 X26.0529 Y14.5690
G01 X26.0351 Y14.5929
G01 X26.0133 Y14.6167
G01 X25.9929 Y14.6351
G01 X25.9690 Y14.6529
G01 X25.9434 Y14.6682
G01 X25.9186 Y14.6800
G01 X25.8883 Y14.6910
G01 X25.8569 Y14.6987
G01 X25.8298 Y14.7027
G01 X25.8025 Y14.7041
G01 X22.0041 Y14.7041
G01 X22.0041 Y18.9000
G01 X22.0028 Y18.9274
G01 X21.9977 Y18.9617
G01 X21.9910 Y18.9883
G01 X21.9810 Y19.0164
G01 X21.9682 Y19.0434
G01 X21.9542 Y19.0669
G01 X21.9335 Y19.0948
G01 X21.9151 Y19.1151
G01 X21.8929 Y19.1351
G01 X21.8690 Y19.1529
G01 X21.8455 Y19.1670
G01 X21.8141 Y19.1819
G01 X21.7883 Y19.1910
G01 X21.7569 Y19.1987
G01 X21.7298 Y19.2027
G01 X21.7000 Y19.2041
G01 X20.2000 Y19.2041
G01 X20.1678 Y19.2024
G01 X20.1407 Y19.1983
G01 X20.1129 Y19.1914
G01 X20.0836 Y19.1810
G01 X20.0545 Y19.1670
G01 X20.0310 Y19.1529
G01 X20.0090 Y19.1366
G01 X19.9858 Y19.1159
G01 X19.4841 Y18.6142
G01 X19.4634 Y18.5910
G01 X19.4471 Y18.5690
G01 X19.4324 Y18.5444
G01 X19.4190 Y18.5164
G01 X19.4083 Y18.4859
G01 X19.4017 Y18.4593
G01 X19.3976 Y18.4322
G01 X19.3959 Y18.4000
G01 X19.3959 Y14.7260
G01 X18.8740 Y14.2041
G01 X17.7260 Y14.2041
G01 X17.2041 Y14.7260
G01 X17.2041 Y18.2012
G01 X17.2027 Y18.2298
G01 X17.1987 Y18.2569
G01 X17.1903 Y18.2906
G01 X17.1810 Y18.3164
G01 X17.1682 Y18.3434
G01 X17.1529 Y18.3690
G01 X17.1366 Y18.3910
G01 X17.1151 Y18.4151
G01 X16.5142 Y19.0159
G01 X16.4929 Y19.0351
G01 X16.4690 Y19.0529
G01 X16.4434 Y19.0682
G01 X16.4141 Y19.0819
G01 X16.3883 Y19.0910
G01 X16.3593 Y19.0983
G01 X16.3298 Y19.1027
G01 X16.3012 Y19.1041
G01 X15.1988 Y19.1041
G01 X15.1702 Y19.1027
G01 X15.1407 Y19.0983
G01 X15.1117 Y19.0910
G01 X15.0836 Y19.0810
G01 X15.0566 Y19.0682
G01 X15.0310 Y19.0529
G01 X15.0071 Y19.0351
G01 X14.9867 Y19.0167
G01 X14.2841 Y18.3142
G01 X14.2649 Y18.2929
G01 X14.2458 Y18.2669
G01 X14.2318 Y18.2434
G01 X14.2200 Y18.2186
G01 X14.2097 Y18.1906
G01 X14.2013 Y18.1569
G01 X14.1973 Y18.1298
G01 X14.1959 Y18.1000
G01 X14.1959 Y14.9260
G01 X13.4740 Y14.2041
G01 X12.8260 Y14.2041
G01 X12.7041 Y14.3260
G01 X12.7041 Y17.8012
G01 X12.7027 Y17.8298
G01 X12.6987 Y17.8569
G01 X12.6910 Y17.8883
G01 X12.6800 Y17.9186
G01 X12.6682 Y17.9434
G01 X12.6542 Y17.9669
G01 X12.6351 Y17.9929
G01 X12.6151 Y18.0151
G01 X12.3151 Y18.3151
G01 X12.2920 Y18.3359
G01 X12.2690 Y18.3529
G01 X12.2434 Y18.3682
G01 X12.2164 Y18.3810
G01 X12.1906 Y18.3903
G01 X12.1569 Y18.3987
G01 X12.1298 Y18.4027
G01 X12.1012 Y18.4041
G01 X11.6975 Y18.4041
G01 X11.6702 Y18.4027
G01 X11.6407 Y18.3983
G01 X11.6117 Y18.3910
G01 X11.5825 Y18.3805
G01 X11.5566 Y18.3682
G01 X11.5310 Y18.3529
G01 X11.5071 Y18.3351
G01 X11.4867 Y18.3167
G01 X11.1849 Y18.0151
G01 X11.1657 Y17.9939
G01 X11.1471 Y17.9690
G01 X11.1330 Y17.9455
G01 X11.1181 Y17.9141
G01 X11.1090 Y17.8883
G01 X11.1017 Y17.8593
G01 X11.0973 Y17.8298
G01 X11.0959 Y17.8012
G01 X11.0959 Y14.2260
G01 X10.9740 Y14.1041
G01 X10.8260 Y14.1041
G01 X10.7041 Y14.2260
G01 X10.7041 Y17.9000
G01 X10.7024 Y17.9322
G01 X10.6983 Y17.9593
G01 X10.6914 Y17.9871
G01 X10.6810 Y18.0164
G01 X10.6670 Y18.0455
G01 X10.6529 Y18.0690
G01 X10.6366 Y18.0910
G01 X10.6159 Y18.1142
G01 X10.3133 Y18.4167
G01 X10.2929 Y18.4351
G01 X10.2690 Y18.4529
G01 X10.2434 Y18.4682
G01 X10.2186 Y18.4800
G01 X10.1883 Y18.4910
G01 X10.1617 Y18.4977
G01 X10.1274 Y18.5028
G01 X10.1000 Y18.5041
G01 X9.7988 Y18.5041
G01 X9.7702 Y18.5027
G01 X9.7383 Y18.4977
G01 X9.7117 Y18.4910
G01 X9.6859 Y18.4819
G01 X9.6577 Y18.4688
G01 X9.6290 Y18.4515
G01 X9.6071 Y18.4351
G01 X9.5858 Y18.4159
G01 X9.3299 Y18.1601
G01 X9.3099 Y18.1379
G01 X9.2921 Y18.1140
G01 X9.2780 Y18.0905
G01 X9.2640 Y18.0614
G01 X9.2540 Y18.0333
G01 X9.2473 Y18.0067
G01 X9.2422 Y17.9724
G01 X9.2409 Y17.9450
G01 X9.2409 Y10.8940
G01 X9.1364 Y10.8678
G01 X7.9453 Y12.0589
G01 X7.9453 Y33.3007
G01 X7.9583 Y33.3138
G01 X7.9639 Y33.3218
G01 X7.9666 Y33.3273
G01 X7.9686 Y33.3331
G01 X7.9699 Y33.3391
G01 X7.9704 Y33.3452
G01 X7.9704 Y33.8935
G01 X7.9700 Y33.8997
G01 X7.9692 Y33.9045
G01 X7.9661 Y33.9138
G01 X7.9613 Y33.9223
G01 X7.9558 Y33.9289
G01 X7.5689 Y34.3158
G01 X7.5613 Y34.3220
G01 X7.5527 Y34.3266
G01 X7.5433 Y34.3294
G01 X7.5335 Y34.3304
G01 X6.9865 Y34.3304
G01 X6.9767 Y34.3294
G01 X6.9708 Y34.3279
G01 X6.9662 Y34.3261
G01 X6.9577 Y34.3213
G01 X6.9511 Y34.3158
G01 X6.5642 Y33.9289
G01 X6.5602 Y33.9243
G01 X6.5574 Y33.9203
G01 X6.5530 Y33.9115
G01 X6.5503 Y33.9021
G01 X6.5496 Y33.8935
G01 X6.5496 Y33.3452
G01 X6.5508 Y33.3355
G01 X6.5539 Y33.3262
G01 X6.5580 Y33.3187
G01 X6.5642 Y33.3111
G00 Z1.0000
M05
G00 Z1.0000
G00 Z15.00


