(G-CODE GENERATED BY FLATCAM v8.994 - www.flatcam.org - Version Date: 2020/11/7)

(Name: copper_top.gbr_cutout_cnc)
(Type: G-code from Geometry)
(Units: MM)

(Created on Saturday, 28 January 2023 at 16:15)

(This preprocessor is the default preprocessor used by FlatCAM.)
(It is made to work with MACH3 compatible motion controllers.)

(TOOL DIAMETER: 1.0 mm)
(Feedrate_XY: 30.0 mm/min)
(Feedrate_Z: 25.0 mm/min)
(Feedrate rapids 1500.0 mm/min)

(Z_Cut: -0.1 mm)
(Z_Move: 1.0 mm)
(Z Start: None mm)
(Z End: 15.0 mm)
(X,Y End: None mm)
(Steps per circle: 64)
(Preprocessor Geometry: default)

(X range:    5.5996 ...   36.8083  mm)
(Y range:    1.3917 ...   35.2804  mm)

(Spindle Speed: 1000.0 RPM)
G21
G90
G94

G01 F30.00

M5
G00 Z15.0000
G00 X0.0000 Y0.0000
T1
M6    
(MSG, Change to Tool Dia = 1.0000)
M0
G00 Z15.0000

M03 S1000.0
G01 F30.00
G00 X5.5996 Y17.3361
G01 F25.00
G01 Z-0.1000
G01 F30.00
G01 X5.5996 Y2.3917
G01 X5.6044 Y2.2937
G01 X5.6188 Y2.1967
G01 X5.6427 Y2.1015
G01 X5.6757 Y2.0091
G01 X5.7177 Y1.9203
G01 X5.7681 Y1.8362
G01 X5.8266 Y1.7574
G01 X5.8925 Y1.6846
G01 X5.9652 Y1.6187
G01 X6.0440 Y1.5603
G01 X6.1282 Y1.5098
G01 X6.2169 Y1.4679
G01 X6.3093 Y1.4348
G01 X6.4045 Y1.4110
G01 X6.5016 Y1.3966
G01 X6.5996 Y1.3917
G01 X35.8083 Y1.3917
G01 X35.9063 Y1.3966
G01 X36.0033 Y1.4110
G01 X36.0985 Y1.4348
G01 X36.1909 Y1.4679
G01 X36.2797 Y1.5098
G01 X36.3638 Y1.5603
G01 X36.4426 Y1.6187
G01 X36.5154 Y1.6846
G01 X36.5813 Y1.7574
G01 X36.6397 Y1.8362
G01 X36.6902 Y1.9203
G01 X36.7321 Y2.0091
G01 X36.7652 Y2.1015
G01 X36.7890 Y2.1967
G01 X36.8034 Y2.2937
G01 X36.8083 Y2.3917
G01 X36.8083 Y17.3361
G00 Z1.0000
G00 X5.5996 Y20.3361
G01 F25.00
G01 Z-0.1000
G01 F30.00
G01 X5.5996 Y34.2804
G01 X5.6044 Y34.3784
G01 X5.6188 Y34.4755
G01 X5.6427 Y34.5707
G01 X5.6757 Y34.6631
G01 X5.7177 Y34.7518
G01 X5.7681 Y34.8360
G01 X5.8266 Y34.9148
G01 X5.8925 Y34.9875
G01 X5.9652 Y35.0534
G01 X6.0440 Y35.1119
G01 X6.1282 Y35.1623
G01 X6.2169 Y35.2043
G01 X6.3093 Y35.2373
G01 X6.4045 Y35.2612
G01 X6.5016 Y35.2756
G01 X6.5996 Y35.2804
G01 X35.8083 Y35.2804
G01 X35.9063 Y35.2756
G01 X36.0033 Y35.2612
G01 X36.0985 Y35.2373
G01 X36.1909 Y35.2043
G01 X36.2797 Y35.1623
G01 X36.3638 Y35.1119
G01 X36.4426 Y35.0534
G01 X36.5154 Y34.9875
G01 X36.5813 Y34.9148
G01 X36.6397 Y34.8360
G01 X36.6902 Y34.7518
G01 X36.7321 Y34.6631
G01 X36.7652 Y34.5707
G01 X36.7890 Y34.4755
G01 X36.8034 Y34.3784
G01 X36.8083 Y34.2804
G01 X36.8083 Y20.3361
G00 Z1.0000
M05
G00 Z1.0000
G00 Z15.00


